templates/main/source/images/catalog-view-list.svg

<svg width="24" height="20" viewBox="0 0 24 20" xmlns:xlink="http://www.w3.org/1999/xlink" xmlns="http://www.w3.org/2000/svg"><path d="M0 0h24v4H0V0zm0 8h24v4H0V8zm24 8H0v4h24v-4z" id="view1" fill="#ECECEC" fill-rule="evenodd" stroke="none"/></svg>

<?xml version="1.0" encoding="utf-8"?>
<svg width="24px" height="20px" viewBox="0 0 24 20" version="1.1" xmlns:xlink="http://www.w3.org/1999/xlink" xmlns="http://www.w3.org/2000/svg">
  <desc>Created with Lunacy</desc>
  <path d="M0 0L24 0L24 4L0 4L0 0ZM0 8L24 8L24 12L0 12L0 8ZM24 16L0 16L0 20L24 20L24 16Z" id="view1" fill="#ECECEC" fill-rule="evenodd" stroke="none" />
</svg>
